assets/img/icons/duotone-icons/Communication/Sending.svg

<?xml version="1.0" encoding="UTF-8"?>
<svg width="24px" height="24px" viewBox="0 0 24 24" version="1.1" xmlns="http://www.w3.org/2000/svg" xmlns:xlink="http://www.w3.org/1999/xlink">
    <!-- Generator: Sketch 52.2 (67145) - http://www.bohemiancoding.com/sketch -->
    <title>Stockholm-icons / Communication / Sending</title>
    <desc>Created with Sketch.</desc>
    <g id="Stockholm-icons-/-Communication-/-Sending" stroke="none" stroke-width="1" fill="none" fill-rule="evenodd">
        <rect id="bound" x="0" y="0" width="24" height="24"></rect>
        <path d="M8,13.1668961 L20.4470385,11.9999863 L8,10.8330764 L8,5.77181995 C8,5.70108058 8.01501031,5.63114635 8.04403925,5.56663761 C8.15735832,5.31481744 8.45336217,5.20254012 8.70518234,5.31585919 L22.545552,11.5440255 C22.6569791,11.5941677 22.7461882,11.6833768 22.7963304,11.794804 C22.9096495,12.0466241 22.7973722,12.342628 22.545552,12.455947 L8.70518234,18.6841134 C8.64067359,18.7131423 8.57073936,18.7281526 8.5,18.7281526 C8.22385763,18.7281526 8,18.504295 8,18.2281526 L8,13.1668961 Z" id="Combined-Shape" fill="#335EEA"></path>
        <path d="M4,16 L5,16 C5.55228475,16 6,16.4477153 6,17 C6,17.5522847 5.55228475,18 5,18 L4,18 C3.44771525,18 3,17.5522847 3,17 C3,16.4477153 3.44771525,16 4,16 Z M1,11 L5,11 C5.55228475,11 6,11.4477153 6,12 C6,12.5522847 5.55228475,13 5,13 L1,13 C0.44771525,13 6.76353751e-17,12.5522847 0,12 C-6.76353751e-17,11.4477153 0.44771525,11 1,11 Z M4,6 L5,6 C5.55228475,6 6,6.44771525 6,7 C6,7.55228475 5.55228475,8 5,8 L4,8 C3.44771525,8 3,7.55228475 3,7 C3,6.44771525 3.44771525,6 4,6 Z" id="Combined-Shape" fill="#335EEA" opacity="0.3"></path>
    </g>
</svg>

<svg width="24" height="24" viewBox="0 0 24 24" xmlns="http://www.w3.org/2000/svg"><g fill="none" fill-rule="evenodd"><path d="M0 0h24v24H0z"/><path d="M8 13.167L20.447 12 8 10.833V5.772a.5.5 0 01.705-.456l13.84 6.228a.5.5 0 010 .912l-13.84 6.228A.5.5 0 018 18.228v-5.061z" fill="#335EEA"/><path d="M4 16h1a1 1 0 010 2H4a1 1 0 010-2zm-3-5h4a1 1 0 010 2H1a1 1 0 010-2zm3-5h1a1 1 0 110 2H4a1 1 0 110-2z" fill="#335EEA" opacity=".3"/></g></svg>
